assets/9044304_document_export_icon.svg

<svg viewBox="0 0 32 32" xmlns="http://www.w3.org/2000/svg"><path d="M13 21h13.17l-2.58 2.59L25 25l5-5-5-5-1.41 1.41L26.17 19H13v2z" fill="#252e40" class="fill-000000"></path><path d="M22 14v-4a1 1 0 0 0-.29-.71l-7-7A1 1 0 0 0 14 2H4a2 2 0 0 0-2 2v24a2 2 0 0 0 2 2h16a2 2 0 0 0 2-2v-2h-2v2H4V4h8v6a2 2 0 0 0 2 2h6v2Zm-8-4V4.41L19.59 10Z" fill="#252e40" class="fill-000000"></path><path data-name="<Transparent Rectangle>" d="M0 0h32v32H0z" fill="none"></path></svg>

<?xml version="1.0" encoding="UTF-8" standalone="no"?>
<svg
   viewBox="0 0 32 32"
   version="1.1"
   id="svg15"
   sodipodi:docname="9044304_document_export_icon.svg"
   inkscape:version="1.2.2 (732a01da63, 2022-12-09)"
   inkscape:export-filename="9044304_document_export_icon.png"
   inkscape:export-xdpi="3072"
   inkscape:export-ydpi="3072"
   xmlns:inkscape="http://www.inkscape.org/namespaces/inkscape"
   xmlns:sodipodi="http://sodipodi.sourceforge.net/DTD/sodipodi-0.dtd"
   xmlns="http://www.w3.org/2000/svg"
   xmlns:svg="http://www.w3.org/2000/svg">
  <defs
     id="defs19" />
  <sodipodi:namedview
     id="namedview17"
     pagecolor="#ffffff"
     bordercolor="#666666"
     borderopacity="1.0"
     inkscape:showpageshadow="2"
     inkscape:pageopacity="1"
     inkscape:pagecheckerboard="0"
     inkscape:deskcolor="#d1d1d1"
     showgrid="false"
     inkscape:zoom="21.0625"
     inkscape:cx="16"
     inkscape:cy="16"
     inkscape:window-width="1600"
     inkscape:window-height="877"
     inkscape:window-x="-8"
     inkscape:window-y="-8"
     inkscape:window-maximized="1"
     inkscape:current-layer="svg15" />
  <path
     d="M 13,21 H 26.17 L 23.59,23.59 25,25 30,20 25,15 23.59,16.41 26.17,19 H 13 Z"
     fill="#252e40"
     class="fill-000000"
     id="path9"
     style="display:inline" />
  <path
     d="M 22,14 V 10 A 1,1 0 0 0 21.71,9.29 l -7,-7 A 1,1 0 0 0 14,2 H 4 A 2,2 0 0 0 2,4 v 24 a 2,2 0 0 0 2,2 h 16 a 2,2 0 0 0 2,-2 v -2 h -2 v 2 H 4 V 4 h 8 v 6 a 2,2 0 0 0 2,2 h 6 v 2 z M 14,10 V 4.41 L 19.59,10 Z"
     fill="#252e40"
     class="fill-000000"
     id="path11"
     style="display:inline" />
  <path
     data-name=""
     id="path13"
     d=""
     style="display:inline" />
  <Transparent>&quot; d=&quot;M0 0h32v32H0z&quot; fill=&quot;none&quot;&gt;</Transparent>
</svg>
